X: 4082
T: THREE A PENNY
R: Strathspey.
%R: strathspey
B: James Kerr "Merry Melodies" v.4 p.11 #82
Z: 2016 John Chambers <jc:trillian.mit.edu>
M: C
L: 1/8
K: D
|:\
vd>vef>d g>ef>d | B<e e>d c<e e>f |\
d>ef>d g>ef>d | B<e c>A d2-dA ::\
a>fd>f a>fd>f | g>fe>d c<e e>f |\
a>fd>f a>fd>f | B<e c>A d2-dA :|

%%sep 1 1 500
%%sep 1 1 500

